X: 19983
T: Jim Hodder's
R: reel
M: 4/4
K: Edorian
E2B,E G2EG|B2GB d2Bc|dedB AFDE|F2ED EDB,D|
E2B,E G2EG|B2GB d2Bc|dedB AFDE|1 F2ED EDB,D:|2 F2ED EDcd||
e3f gfeg|fB~B2 e3f|gfe2 b2b2|e3f gfeg|fBBc dedB|AFDF E2Bd|
e3f gfeg|fB~B2 e3f|gfe2 b2b2|e3f gfeg|fBBc dedB|AFDF EDB,D||

